Sweet-Rainbow/icons/calibre-viewer.svg

<?xml version="1.0" encoding="UTF-8" standalone="no"?>
<!-- Generator: Gravit.io -->

<svg
   xmlns:dc="http://purl.org/dc/elements/1.1/"
   xmlns:cc="http://creativecommons.org/ns#"
   xmlns:rdf="http://www.w3.org/1999/02/22-rdf-syntax-ns#"
   xmlns:svg="http://www.w3.org/2000/svg"
   xmlns="http://www.w3.org/2000/svg"
   xmlns:sodipodi="http://sodipodi.sourceforge.net/DTD/sodipodi-0.dtd"
   xmlns:inkscape="http://www.inkscape.org/namespaces/inkscape"
   style="isolation:isolate"
   viewBox="0 0 36 36"
   width="48"
   height="48"
   version="1.1"
   id="svg28"
   sodipodi:docname="calibre-viewer.svg"
   inkscape:version="0.92.4 (5da689c313, 2019-01-14)">
  <metadata
     id="metadata34">
    <rdf:RDF>
      <cc:Work
         rdf:about="">
        <dc:format>image/svg+xml</dc:format>
        <dc:type
           rdf:resource="http://purl.org/dc/dcmitype/StillImage" />
        <dc:title></dc:title>
      </cc:Work>
    </rdf:RDF>
  </metadata>
  <defs
     id="defs32" />
  <sodipodi:namedview
     pagecolor="#ffffff"
     bordercolor="#666666"
     borderopacity="1"
     objecttolerance="10"
     gridtolerance="10"
     guidetolerance="10"
     inkscape:pageopacity="0"
     inkscape:pageshadow="2"
     inkscape:window-width="640"
     inkscape:window-height="480"
     id="namedview30"
     showgrid="false"
     inkscape:zoom="29.365243"
     inkscape:cx="25.325443"
     inkscape:cy="32"
     inkscape:current-layer="svg28"
     units="px" />
  <linearGradient
     id="_lgradient_50"
     x1="0.06818182"
     y1="0.23295455"
     x2="0.93843019"
     y2="0.77938956"
     gradientTransform="matrix(38,0,0,46,2.752,1)"
     gradientUnits="userSpaceOnUse">
    <stop
       offset="1.3043478260869565%"
       stop-opacity="1"
       style="stop-color:rgb(55,236,186)"
       id="stop2" />
    <stop
       offset="97.82608695652173%"
       stop-opacity="1"
       style="stop-color:rgb(114,175,211)"
       id="stop4" />
  </linearGradient>
  <linearGradient
     id="_lgradient_51"
     x1="0"
     y1="0.5"
     x2="1"
     y2="0.5"
     gradientTransform="matrix(13.421,0,0,8,28.538,31)"
     gradientUnits="userSpaceOnUse">
    <stop
       offset="0%"
       stop-opacity="1"
       style="stop-color:rgb(255,224,49)"
       id="stop9" />
    <stop
       offset="100%"
       stop-opacity="1"
       style="stop-color:rgb(250,0,117)"
       id="stop11" />
  </linearGradient>
  <linearGradient
     id="_lgradient_52"
     x1="0"
     y1="0.5"
     x2="1"
     y2="0.5"
     gradientTransform="matrix(20,0,0,20,25.248,25)"
     gradientUnits="userSpaceOnUse">
    <stop
       offset="0%"
       stop-opacity="1"
       style="stop-color:rgb(255,224,49)"
       id="stop16" />
    <stop
       offset="100%"
       stop-opacity="1"
       style="stop-color:rgb(250,0,117)"
       id="stop18" />
  </linearGradient>
  <linearGradient
     id="_lgradient_53"
     x1="24.748672"
     y1="34.999649"
     x2="45.748463"
     y2="34.999649"
     gradientTransform="scale(0.99998993,1.0000101)"
     gradientUnits="userSpaceOnUse">
    <stop
       offset="0%"
       stop-opacity="1"
       style="stop-color:rgb(255,224,49)"
       id="stop21" />
    <stop
       offset="100%"
       stop-opacity="1"
       style="stop-color:rgb(250,0,117)"
       id="stop23" />
  </linearGradient>
  <g
     id="g844"
     transform="matrix(0.7826087,0,0,0.7826087,-0.97826098,-0.7826088)">
    <path
       id="path7"
       d="m 11.252,35 h -3.5 c -0.343,0 -0.677,0.034 -1,0.1 V 8 c 0,-1.656 1.344,-3 3,-3 h 1.5 v 0 17.62 c 0,1.656 0.95,2.049 2.121,0.879 l 3.379,-3.379 3.378,3.379 c 1.171,1.17 2.122,0.777 2.122,-0.879 V 5 h 11.5 c 1.655,0 3,1.344 3,3 v 12 0 c 0,1.104 0.896,2 2,2 v 0 c 1.103,0 2,-0.896 2,-2 V 20 6 c 0,-2.76 -2.241,-5 -5,-5 h -28 c -2.76,0 -5,2.24 -5,5 v 33 1 1 1 c 0,2.76 2.24,5 5,5 h 16 v 0 c 1.103,0 2,-0.896 2,-2 v 0 c 0,-1.104 -0.897,-2 -2,-2 v 0 h -15 c -1.104,0 -2,-0.896 -2,-2 v 0 0 c 0,-1.104 0.896,-2 2,-2 h 11 c 1.103,0 2,-0.896 2,-2 v 0 c 0,-1.104 -0.897,-2 -2,-2 h -5.5 v -5 0 c 0,-0.828 -0.672,-1.5 -1.5,-1.5 v 0 c -0.828,0 -1.5,0.672 -1.5,1.5 v 0 z m 3,-30 h 5 v 13.38 l -1.793,-1.793 c -0.391,-0.39 -1.024,-0.39 -1.414,0 l -1.793,1.793 z"
       style="fill:url(#_lgradient_50);fill-rule:evenodd"
       inkscape:connector-curvature="0" />
    <path
       id="path14"
       d="m 35.248,31 c -2.564,0 -4.889,1.403 -6.605,3.682 -0.14,0.186 -0.14,0.447 0,0.634 1.716,2.281 4.041,3.684 6.605,3.684 2.565,0 4.89,-1.403 6.606,-3.682 0.14,-0.186 0.14,-0.447 0,-0.634 C 40.138,32.403 37.813,31 35.248,31 Z m 0.184,6.817 c -1.702,0.107 -3.107,-1.296 -3,-3.001 0.087,-1.406 1.227,-2.545 2.632,-2.633 1.703,-0.107 3.108,1.296 3.001,3.001 -0.09,1.403 -1.23,2.542 -2.633,2.633 z m -0.085,-1.302 c -0.917,0.058 -1.674,-0.697 -1.614,-1.614 0.047,-0.758 0.662,-1.37 1.419,-1.419 0.917,-0.058 1.675,0.697 1.615,1.614 -0.05,0.761 -0.665,1.373 -1.42,1.419 z"
       style="fill:url(#_lgradient_51)"
       inkscape:connector-curvature="0" />
    <path
       id="path26"
       stroke-miterlimit="3"
       d="m 27.067,34.391 v 0 c -0.038,0.499 -0.475,0.875 -0.976,0.839 v 0 c -0.501,-0.037 -0.878,-0.474 -0.84,-0.975 v 0 c 0.187,-2.514 1.32,-4.869 3.172,-6.587 C 30.275,25.955 32.71,25 35.236,25 c 2.653,0 5.202,1.055 7.081,2.927 1.876,1.878 2.931,4.423 2.931,7.073 0,2.65 -1.055,5.195 -2.931,7.073 C 40.438,43.945 37.889,45 35.236,45 v 0 c -0.502,0 -0.91,-0.407 -0.91,-0.909 v 0 c 0,-0.502 0.408,-0.909 0.91,-0.909 v 0 c 2.171,0 4.255,-0.864 5.794,-2.396 1.533,-1.536 2.398,-3.618 2.398,-5.786 0,-2.168 -0.865,-4.25 -2.398,-5.786 -1.539,-1.532 -3.623,-2.396 -5.794,-2.396 -2.066,0 -4.06,0.777 -5.575,2.182 -1.516,1.405 -2.439,3.332 -2.594,5.391 z m 4.36,7.854 v 0 c 0.444,0.234 0.616,0.784 0.382,1.228 v 0 c -0.234,0.444 -0.784,0.615 -1.229,0.382 v 0 c -1.893,-0.996 -3.422,-2.573 -4.355,-4.496 v 0 c -0.221,-0.451 -0.034,-0.996 0.419,-1.216 v 0 c 0.452,-0.219 0.998,-0.031 1.219,0.421 v 0 c 0.765,1.577 2.012,2.863 3.564,3.681 z"
       style="vector-effect:non-scaling-stroke;fill:url(#_lgradient_52);fill-rule:evenodd;stroke:url(#_lgradient_53);stroke-width:1;stroke-linecap:square;stroke-linejoin:miter;stroke-miterlimit:3"
       inkscape:connector-curvature="0" />
  </g>
</svg>

<?xml version="1.0" encoding="UTF-8" standalone="no"?><!-- Generator: Gravit.io --><svg xmlns="http://www.w3.org/2000/svg" xmlns:xlink="http://www.w3.org/1999/xlink" style="isolation:isolate" viewBox="0 0 48 48" width="48pt" height="48pt"><linearGradient id="_lgradient_50" x1="0.0681818181817685" y1="0.23295454545454564" x2="0.9384302091713562" y2="0.779389581657281" gradientTransform="matrix(38,0,0,46,2.752,1)" gradientUnits="userSpaceOnUse"><stop offset="1.3043478260869565%" stop-opacity="1" style="stop-color:rgb(55,236,186)"/><stop offset="97.82608695652173%" stop-opacity="1" style="stop-color:rgb(114,175,211)"/></linearGradient><path d=" M 11.252 35 L 7.752 35 C 7.409 35 7.075 35.034 6.752 35.1 L 6.752 8 C 6.752 6.344 8.096 5 9.752 5 L 11.252 5 L 11.252 5 L 11.252 22.62 C 11.252 24.276 12.202 24.669 13.373 23.499 L 16.752 20.12 L 20.13 23.499 C 21.301 24.669 22.252 24.276 22.252 22.62 L 22.252 5 L 33.752 5 C 35.407 5 36.752 6.344 36.752 8 L 36.752 20 L 36.752 20 C 36.752 21.104 37.648 22 38.752 22 L 38.752 22 C 39.855 22 40.752 21.104 40.752 20 L 40.752 20 L 40.752 6 C 40.752 3.24 38.511 1 35.752 1 L 7.752 1 C 4.992 1 2.752 3.24 2.752 6 L 2.752 39 L 2.752 40 L 2.752 41 L 2.752 42 C 2.752 44.76 4.992 47 7.752 47 L 23.752 47 L 23.752 47 C 24.855 47 25.752 46.104 25.752 45 L 25.752 45 C 25.752 43.896 24.855 43 23.752 43 L 23.752 43 L 8.752 43 C 7.648 43 6.752 42.104 6.752 41 L 6.752 41 L 6.752 41 C 6.752 39.896 7.648 39 8.752 39 L 19.752 39 C 20.855 39 21.752 38.104 21.752 37 L 21.752 37 C 21.752 35.896 20.855 35 19.752 35 L 14.252 35 L 14.252 30 L 14.252 30 C 14.252 29.172 13.58 28.5 12.752 28.5 L 12.752 28.5 C 11.924 28.5 11.252 29.172 11.252 30 L 11.252 30 L 11.252 35 Z  M 14.252 5 L 19.252 5 L 19.252 18.38 L 17.459 16.587 C 17.068 16.197 16.435 16.197 16.045 16.587 L 14.252 18.38 L 14.252 5 L 14.252 5 Z " fill-rule="evenodd" fill="url(#_lgradient_50)"/><linearGradient id="_lgradient_51" x1="0" y1="0.5" x2="1" y2="0.5" gradientTransform="matrix(13.421,0,0,8,28.538,31)" gradientUnits="userSpaceOnUse"><stop offset="0%" stop-opacity="1" style="stop-color:rgb(255,224,49)"/><stop offset="100%" stop-opacity="1" style="stop-color:rgb(250,0,117)"/></linearGradient><path d=" M 35.248 31 C 32.684 31 30.359 32.403 28.643 34.682 C 28.503 34.868 28.503 35.129 28.643 35.316 C 30.359 37.597 32.684 39 35.248 39 C 37.813 39 40.138 37.597 41.854 35.318 C 41.994 35.132 41.994 34.871 41.854 34.684 C 40.138 32.403 37.813 31 35.248 31 Z  M 35.432 37.817 C 33.73 37.924 32.325 36.521 32.432 34.816 C 32.519 33.41 33.659 32.271 35.064 32.183 C 36.767 32.076 38.172 33.479 38.065 35.184 C 37.975 36.587 36.835 37.726 35.432 37.817 Z  M 35.347 36.515 C 34.43 36.573 33.673 35.818 33.733 34.901 C 33.78 34.143 34.395 33.531 35.152 33.482 C 36.069 33.424 36.827 34.179 36.767 35.096 C 36.717 35.857 36.102 36.469 35.347 36.515 Z " fill="url(#_lgradient_51)"/><linearGradient id="_lgradient_52" x1="0" y1="0.5" x2="1" y2="0.5" gradientTransform="matrix(20,0,0,20,25.248,25)" gradientUnits="userSpaceOnUse"><stop offset="0%" stop-opacity="1" style="stop-color:rgb(255,224,49)"/><stop offset="100%" stop-opacity="1" style="stop-color:rgb(250,0,117)"/></linearGradient><linearGradient id="_lgradient_53" x1="0" y1="0.5" x2="1" y2="0.5"><stop offset="0%" stop-opacity="1" style="stop-color:rgb(255,224,49)"/><stop offset="100%" stop-opacity="1" style="stop-color:rgb(250,0,117)"/></linearGradient><path d=" M 27.067 34.391 L 27.067 34.391 C 27.029 34.89 26.592 35.266 26.091 35.23 L 26.091 35.23 C 25.59 35.193 25.213 34.756 25.251 34.255 L 25.251 34.255 C 25.438 31.741 26.571 29.386 28.423 27.668 C 30.275 25.955 32.71 25 35.236 25 C 37.889 25 40.438 26.055 42.317 27.927 C 44.193 29.805 45.248 32.35 45.248 35 C 45.248 37.65 44.193 40.195 42.317 42.073 C 40.438 43.945 37.889 45 35.236 45 L 35.236 45 C 34.734 45 34.326 44.593 34.326 44.091 L 34.326 44.091 C 34.326 43.589 34.734 43.182 35.236 43.182 L 35.236 43.182 C 37.407 43.182 39.491 42.318 41.03 40.786 C 42.563 39.25 43.428 37.168 43.428 35 C 43.428 32.832 42.563 30.75 41.03 29.214 C 39.491 27.682 37.407 26.818 35.236 26.818 C 33.17 26.818 31.176 27.595 29.661 29 C 28.145 30.405 27.222 32.332 27.067 34.391 Z  M 31.427 42.245 L 31.427 42.245 C 31.871 42.479 32.043 43.029 31.809 43.473 L 31.809 43.473 C 31.575 43.917 31.025 44.088 30.58 43.855 L 30.58 43.855 C 28.687 42.859 27.158 41.282 26.225 39.359 L 26.225 39.359 C 26.004 38.908 26.191 38.363 26.644 38.143 L 26.644 38.143 C 27.096 37.924 27.642 38.112 27.863 38.564 L 27.863 38.564 C 28.628 40.141 29.875 41.427 31.427 42.245 Z " fill-rule="evenodd" fill="url(#_lgradient_52)" vector-effect="non-scaling-stroke" stroke-width="1" stroke="url(#_lgradient_53)" stroke-linejoin="miter" stroke-linecap="square" stroke-miterlimit="3"/></svg>
